public/images/NoteIcon.svg

<svg width="16" height="18" viewBox="0 0 16 18" fill="none" xmlns="http://www.w3.org/2000/svg">
<path d="M0 2.5C0 1.12 1.12 0 2.5 0H13.5C14.88 0 16 1.12 16 2.5V11.5C16 15.09 13.09 18 9.5 18H2.5C1.12 18 0 16.88 0 15.5V2.5Z" fill="#EEEEEE"/>
<path d="M15 11.5V2.5C15 1.67 14.33 1 13.5 1H2.5C1.67 1 1 1.67 1 2.5V15.5C1 16.33 1.67 17 2.5 17H9.5C10.33 17 11 16.33 11 15.5C11 14.12 12.12 13 13.5 13C14.33 13 15 12.33 15 11.5ZM14.5 13.79C14.19 13.92 13.85 14 13.5 14C12.67 14 12 14.67 12 15.5C12 15.86 11.93 16.19 11.79 16.5C12.99 15.95 13.95 14.99 14.5 13.79ZM0 2.5C0 1.12 1.12 0 2.5 0H13.5C14.88 0 16 1.12 16 2.5V11.5C16 15.09 13.09 18 9.5 18H2.5C1.12 18 0 16.88 0 15.5V2.5ZM4.5 6C4.22 6 4 5.78 4 5.5C4 5.22 4.22 5 4.5 5H11.5C11.78 5 12 5.22 12 5.5C12 5.78 11.78 6 11.5 6H4.5ZM4.5 9C4.22 9 4 8.78 4 8.5C4 8.22 4.22 8 4.5 8H11.5C11.78 8 12 8.22 12 8.5C12 8.78 11.78 9 11.5 9H4.5ZM4.5 12C4.22 12 4 11.78 4 11.5C4 11.22 4.22 11 4.5 11H9.5C9.78 11 10 11.22 10 11.5C10 11.78 9.78 12 9.5 12H4.5Z" fill="#666666"/>
</svg>

<?xml version="1.0" encoding="utf-8"?>
<!-- Generator: Adobe Illustrator 26.3.1, SVG Export Plug-In . SVG Version: 6.00 Build 0)  -->
<svg version="1.1" id="Layer_1" xmlns="http://www.w3.org/2000/svg" xmlns:xlink="http://www.w3.org/1999/xlink" x="0px" y="0px"
	 viewBox="0 0 16 18" style="enable-background:new 0 0 16 18;" xml:space="preserve">
<style type="text/css">
	.st0{fill:#EEEEEE;}
	.st1{fill:#666666;}
</style>
<path class="st0" d="M0,2.5C0,1.1,1.1,0,2.5,0h11C14.9,0,16,1.1,16,2.5v9c0,3.6-2.9,6.5-6.5,6.5h-7C1.1,18,0,16.9,0,15.5V2.5z"/>
<path class="st1" d="M15,11.5v-9C15,1.7,14.3,1,13.5,1h-11C1.7,1,1,1.7,1,2.5v13C1,16.3,1.7,17,2.5,17h7c0.8,0,1.5-0.7,1.5-1.5
	c0-1.4,1.1-2.5,2.5-2.5C14.3,13,15,12.3,15,11.5z M14.5,13.8c-0.3,0.1-0.6,0.2-1,0.2c-0.8,0-1.5,0.7-1.5,1.5c0,0.4-0.1,0.7-0.2,1
	C13,15.9,13.9,15,14.5,13.8z M0,2.5C0,1.1,1.1,0,2.5,0h11C14.9,0,16,1.1,16,2.5v9c0,3.6-2.9,6.5-6.5,6.5h-7C1.1,18,0,16.9,0,15.5
	V2.5z M4.5,6C4.2,6,4,5.8,4,5.5S4.2,5,4.5,5h7C11.8,5,12,5.2,12,5.5S11.8,6,11.5,6H4.5z M4.5,9C4.2,9,4,8.8,4,8.5S4.2,8,4.5,8h7
	C11.8,8,12,8.2,12,8.5S11.8,9,11.5,9H4.5z M4.5,12C4.2,12,4,11.8,4,11.5S4.2,11,4.5,11h5c0.3,0,0.5,0.2,0.5,0.5S9.8,12,9.5,12H4.5z"
	/>
</svg>
